X: 2
T: The Green Fields Of Woodford
R: jig
M: 6/8
L: 1/8
K: Gmaj
|:d|dBA G2D|EDE GAB|edB dBA|Bee ege|dBA G2D|EDE GAB|AGE A2B|GED D2:||:A|BGG dGG|edB dBA|BGG dGG|edB AGA|BAB deg|age dBG|AGE A2B|GED D2:|


Tune 4070	Setting 4070

